X:7284
T:Hullican's (Hooligan's) Jig
R:Jig
O:Ireland
M:6/8
K:D
A,3|\
D2D FDF|ABA FED|GFG BdB|AFD E2A|\
D2D FDF|ABA FAd|cBA GFE|D3::
DFG|\
ABA DFA|BGB B2B|cdc ABc|dFA dcB|\
ABA DFA|BGB dcB|ABA GFE|D3:|
